package/converter/svg/light/square-arrow-down.svg

<svg xmlns="http://www.w3.org/2000/svg" viewBox="0 0 448 512"><!-- Font Awesome Pro 6.0.0-alpha2 by @fontawesome - https://fontawesome.com License - https://fontawesome.com/license (Commercial License) --><path d="M384 32H64C28.654 32 0 60.654 0 96V416C0 451.346 28.654 480 64 480H384C419.346 480 448 451.346 448 416V96C448 60.654 419.346 32 384 32ZM416 416C416 433.645 401.645 448 384 448H64C46.355 448 32 433.645 32 416V96C32 78.355 46.355 64 64 64H384C401.645 64 416 78.355 416 96V416ZM308.688 260.688L240 329.375V144C240 135.156 232.844 128 224 128S208 135.156 208 144V329.375L139.312 260.688C133.062 254.438 122.937 254.438 116.688 260.688S110.438 277.063 116.688 283.312L212.688 379.312C215.812 382.438 219.906 384 224 384S232.188 382.438 235.312 379.312L331.312 283.312C337.562 277.062 337.562 266.937 331.312 260.688S314.938 254.438 308.688 260.688Z"/></svg>

<svg xmlns="http://www.w3.org/2000/svg" viewBox="0 0 448 512"><!--! Font Awesome Pro 6.6.0 by @fontawesome - https://fontawesome.com License - https://fontawesome.com/license (Commercial License) Copyright 2024 Fonticons, Inc. --><path d="M64 448c-17.7 0-32-14.3-32-32L32 96c0-17.7 14.3-32 32-32l320 0c17.7 0 32 14.3 32 32l0 320c0 17.7-14.3 32-32 32L64 448zM0 416c0 35.3 28.7 64 64 64l320 0c35.3 0 64-28.7 64-64l0-320c0-35.3-28.7-64-64-64L64 32C28.7 32 0 60.7 0 96L0 416zm235.3-36.7l96-96c6.2-6.2 6.2-16.4 0-22.6s-16.4-6.2-22.6 0L240 329.4 240 144c0-8.8-7.2-16-16-16s-16 7.2-16 16l0 185.4-68.7-68.7c-6.2-6.2-16.4-6.2-22.6 0s-6.2 16.4 0 22.6l96 96c6.2 6.2 16.4 6.2 22.6 0z"/></svg>
